;FLAVOR:Marlin
;TIME:2013
;Filament used: 3.42344m
;Layer height: 0.35
;Generated with Cura_SteamEngine 3.4.1
M82 ;absolute extrusion mode
G21 ; set units to millimeters
G90 ; use absolute positioning
M82 ; absolute extrusion mode
; M104 S215 ; set extruder temp
; M140 S60 ; set bed temp
; M190 S60 ; wait for bed temp
; M109 S215 ; wait for extruder temp
G28 W ; home all without mesh bed level
G80 ; mesh bed leveling
G92 E0.0 ; reset extruder distance position
G1 Y-3.0 F1000.0 ; go outside print area
G1 X60.0 E9.0 F1000.0 ; intro line
G1 X100.0 E21.5 F1000.0 ; intro line
G92 E0.0 ; reset extruder distance position
G92 E0
G1 F2100 E-0.8
;LAYER_COUNT:75
;LAYER:0
M107
G0 F3600 X88.894 Y71.443 Z0.15
;TYPE:SKIRT
G1 F2100 E0
G1 F3000 X90.05 Y70.017 E0.10685
G1 X90.51 Y69.555 E0.14479
G1 X91.949 Y68.378 E0.253
G1 X92.364 Y68.09 E0.2824
G1 X92.76 Y67.895 E0.3081
G1 X93.917 Y67.42 E0.38089
G1 X94.195 Y67.32 E0.39809
G1 X99.628 Y65.656 E0.72882
G1 X104.81 Y63.829 E1.04863
G1 X109.871 Y61.716 E1.36785
G1 X114.77 Y59.337 E1.68485
G1 X120.585 Y56.055 E2.0735
G1 X121.044 Y55.842 E2.10295
G1 X121.535 Y55.703 E2.13265
G1 X124.255 Y55.163 E2.29406
G1 X124.757 Y55.104 E2.32348
G1 X125.262 Y55.125 E2.3529
G1 X125.725 Y55.216 E2.38036
G1 X128.788 Y56.057 E2.56524
G1 X129.264 Y56.229 E2.5947
G1 X129.504 Y56.351 E2.61037
G1 X134.295 Y59.032 E2.92993
G1 X139.219 Y61.439 E3.24894
G1 X144.319 Y63.583 E3.57095
G1 X146.819 Y64.511 E3.72617
G1 X152.069 Y66.21 E4.04735
G1 X155.61 Y67.246 E4.26209
G1 X156.01 Y67.393 E4.28689
G1 X157.473 Y68.043 E4.38008
G1 X157.918 Y68.284 E4.40953
G1 X158.205 Y68.494 E4.43023
G1 X159.464 Y69.528 E4.52506
G1 X159.941 Y70.013 E4.56465
G1 X161.148 Y71.536 E4.67776
G1 X161.43 Y71.956 E4.70721
G1 X161.642 Y72.415 E4.73664
G1 X161.743 Y72.744 E4.75667
G1 X162.914 Y77.401 E5.03617
G1 X164.422 Y82.712 E5.35751
G1 X166.211 Y87.884 E5.67605
G1 X168.291 Y92.948 E5.9947
G1 X170.652 Y97.883 E6.31312
G1 X173.793 Y103.548 E6.69015
G1 X174.002 Y104.008 E6.71956
G1 X174.112 Y104.381 E6.74219
G1 X174.526 Y106.177 E6.84947
G1 X174.606 Y106.795 E6.88574
G1 X174.664 Y108.632 E6.99272
G1 X174.64 Y109.137 E7.02214
G1 X174.592 Y109.415 E7.03856
G1 X174.201 Y111.207 E7.14532
G1 X174.055 Y111.691 E7.17475
G1 X173.874 Y112.077 E7.19956
G1 X172.636 Y114.31 E7.34817
G1 X172.503 Y114.527 E7.36299
G1 X168.687 Y120.278 E7.76471
G1 X165.953 Y125.014 E8.08301
G1 X163.484 Y129.906 E8.40196
G1 X161.294 Y134.929 E8.7209
G1 X161.056 Y135.375 E8.75032
G1 X160.911 Y135.583 E8.76508
G1 X160.212 Y136.505 E8.83243
G1 X160.013 Y136.743 E8.85048
G1 X159.364 Y137.446 E8.90617
G1 X158.993 Y137.789 E8.93558
G1 X158.737 Y137.971 E8.95386
G1 X156.78 Y139.222 E9.08906
G1 X156.241 Y139.498 E9.1243
G1 X149.446 Y142.208 E9.5501
G1 X144.492 Y144.564 E9.8694
G1 X139.701 Y147.186 E10.18729
G1 X135.04 Y150.09 E10.50693
G1 X129.648 Y153.797 E10.88779
G1 X129.21 Y154.049 E10.9172
G1 X128.738 Y154.23 E10.94663
G1 X128.457 Y154.299 E10.96347
G1 X125.744 Y154.837 E11.12445
G1 X125.242 Y154.896 E11.15387
G1 X124.737 Y154.875 E11.18329
G1 X124.275 Y154.784 E11.2107
G1 X121.231 Y153.949 E11.39442
G1 X120.756 Y153.777 E11.42383
G1 X120.22 Y153.469 E11.45981
G1 X117.097 Y151.242 E11.68307
G1 X112.49 Y148.27 E12.00217
G1 X107.716 Y145.559 E12.32172
G1 X102.829 Y143.138 E12.63916
G1 X97.779 Y140.983 E12.95874
G1 X93.835 Y139.528 E13.20343
G1 X93.211 Y139.217 E13.24401
G1 X91.075 Y137.842 E13.39187
G1 X90.673 Y137.535 E13.42131
G1 X90.295 Y137.133 E13.45343
G1 X89.169 Y135.706 E13.55923
G1 X88.888 Y135.286 E13.58864
G1 X88.737 Y134.979 E13.60856
G1 X87.254 Y131.501 E13.82863
G1 X84.869 Y126.558 E14.14808
G1 X82.219 Y121.774 E14.4664
G1 X79.286 Y117.124 E14.78639
G1 X77.534 Y114.585 E14.96594
G1 X77.375 Y114.328 E14.98353
G1 X76.153 Y112.141 E15.12935
G1 X75.942 Y111.681 E15.15881
G1 X75.823 Y111.277 E15.18332
G1 X75.411 Y109.431 E15.29341
G1 X75.34 Y108.93 E15.32287
G1 X75.336 Y108.631 E15.34027
G1 X75.395 Y106.794 E15.44725
G1 X75.471 Y106.193 E15.48251
G1 X75.867 Y104.438 E15.58723
G1 X76.017 Y103.955 E15.61667
G1 X76.204 Y103.566 E15.64179
G1 X78.377 Y99.725 E15.89865
G1 X80.848 Y94.828 E16.21791
G1 X83.039 Y89.796 E16.53736
G1 X84.042 Y87.2 E16.69935
G1 X84.926 Y84.698 E16.8538
G1 X86.542 Y79.428 E17.17464
G1 X88.281 Y72.661 E17.58131
G1 X88.445 Y72.183 E17.61073
G1 X88.682 Y71.737 E17.64012
G1 X88.894 Y71.443 E17.66122
G1 F2100 E16.86122
G0 F3600 X90.18 Y75.327
G0 X91.419 Y75.658
G0 X92.497 Y74.09
G0 X93.435 Y72.916
G0 X94.54 Y71.977
G0 X96.005 Y71.472
G0 X97.773 Y71.143
G0 X99.958 Y71.597
G0 X101.46 Y72.23
G0 X102.474 Y73.198
G0 X103.237 Y74.66
G0 X103.624 Y76.418
G0 X102.493 Y92.169
G0 X111.651 Y96.885
G0 X113.123 Y97.82
G0 X113.277 Y105.625
G0 X113.178 Y105.635
;TYPE:WALL-INNER
G1 F2100 E17.66122
G1 F3000 X112.344 Y104.761 E17.73154
G1 X110.456 Y104.182 E17.84648
G1 X106.446 Y104.13 E18.0799
G1 X103.731 Y104.551 E18.23982
G1 X101.257 Y105.273 E18.38982
G1 X99.666 Y106.033 E18.49245
G1 X98.276 Y107.343 E18.60363
G1 X96.581 Y109.08 E18.74489
G1 X94.7 Y110.832 E18.89451
G1 X92.683 Y112.492 E19.04655
G1 X91.062 Y113.467 E19.15666
G1 X88.823 Y114.264 E19.29499
G1 X87.47 Y114.605 E19.3762
G1 X84.845 Y114.536 E19.52904
G1 X83.407 Y114.189 E19.61515
G1 X81.824 Y113.377 E19.7187
G1 X80.628 Y112.38 E19.80933
G1 X79.49 Y110.343 E19.94514
G1 X79.127 Y108.699 E20.04313
G1 X79.18 Y106.972 E20.1437
G1 X79.55 Y105.341 E20.24105
G1 X80.389 Y103.946 E20.3358
G1 X81.499 Y102.855 E20.42639
G1 X83.085 Y102.12 E20.52813
G1 X85.249 Y101.834 E20.65518
G1 X87.125 Y102.513 E20.77131
G1 X87.33 Y102.699 E20.78742
G1 X88.88 Y104.107 E20.9093
G1 X88.898 Y104.123 E20.91071
G1 X88.911 Y104.163 E20.91315
G1 X89.114 Y104.788 E20.9514
G1 X88.791 Y104.204 E20.95791
G1 X87.074 Y103.006 E21.03887
G1 X86.989 Y102.947 E21.04489
G1 X85.135 Y102.3 E21.15918
G1 X83.23 Y102.533 E21.27089
G1 X82.157 Y103.208 E21.34468
G1 X81.016 Y104.246 E21.43446
G1 X80.21 Y105.672 E21.5298
G1 X79.811 Y106.937 E21.607
G1 X79.7 Y108.281 E21.6855
G1 X79.941 Y109.62 E21.76469
G1 X80.998 Y111.746 E21.90288
G1 X82.259 Y112.731 E21.99602
G1 X83.482 Y113.449 E22.07856
G1 X84.719 Y113.797 E22.15336
G1 X86.609 Y113.884 E22.26348
G1 X87.769 Y113.649 E22.33237
G1 X89.573 Y113.045 E22.4431
G1 X91.224 Y112.156 E22.55225
G1 X93.377 Y110.515 E22.70981
G1 X95.14 Y108.534 E22.86417
G1 X96.898 Y106.303 E23.02949
G1 X99.043 Y104.254 E23.20215
G1 X101.446 Y102.624 E23.37116
G1 X103.962 Y101.303 E23.53656
G1 X106.795 Y100.118 E23.7153
G1 X110.466 Y99.009 E23.93851
G1 X112.913 Y98.654 E24.08243
G1 X113.087 Y97.835 E24.13116
G1 X111.634 Y96.921 E24.23108
G1 X108.174 Y95.764 E24.44343
G1 X104.655 Y93.823 E24.67734
G1 X102.462 Y92.193 E24.83639
G1 X101.377 Y89.636 E24.99806
G1 X101.227 Y87.381 E25.1296
G1 X101.914 Y84.963 E25.27591
G1 X102.53 Y82.251 E25.43779
G1 X103.332 Y79.339 E25.61359
G1 X103.585 Y76.42 E25.78413
G1 X103.2 Y74.673 E25.88825
G1 X102.443 Y73.222 E25.98351
G1 X101.439 Y72.263 E26.06433
G1 X99.947 Y71.635 E26.15855
G1 X97.773 Y71.182 E26.2878
G1 X96.015 Y71.51 E26.39189
G1 X94.559 Y72.011 E26.48152
G1 X93.463 Y72.943 E26.56526
G1 X92.532 Y74.107 E26.65201
G1 X92.1 Y75.91 E26.75993
G1 X92.126 Y77.391 E26.84614
G1 X92.426 Y78.633 E26.92051
G1 X93.638 Y80.125 E27.0324
G1 X95.419 Y80.946 E27.14655
G1 X95.537 Y80.965 E27.1535
G1 X97.59 Y81.296 E27.27454
G1 X98.224 Y81.1 E27.31317
G1 X97.65 Y81.406 E27.31888
G1 X97.609 Y81.428 E27.32068
G1 X97.587 Y81.428 E27.32153
G1 X95.508 Y81.364 E27.40212
G1 X95.218 Y81.354 E27.419
G1 X93.396 Y80.538 E27.5352
G1 X92.039 Y78.832 E27.66209
G1 X91.41 Y77.203 E27.76372
G1 X91.4 Y75.656 E27.85377
G1 X91.92 Y73.723 E27.97028
G1 X92.97 Y72.434 E28.06705
G1 X94.276 Y71.37 E28.1651
G1 X96.006 Y70.676 E28.27359
G1 X97.737 Y70.398 E28.37564
G1 X100.005 Y70.755 E28.50927
G1 X101.888 Y71.652 E28.63067
G1 X103.196 Y72.851 E28.73395
G1 X104.052 Y74.494 E28.84178
G1 X104.539 Y76.381 E28.95522
G1 X104.402 Y79.466 E29.13496
G1 X103.848 Y82.528 E29.31607
G1 X103.888 Y85.266 E29.47546
G1 X103.881 Y87.201 E29.58809
G1 X104.396 Y89.012 E29.69767
G1 X105.546 Y90.264 E29.79662
G1 X106.825 Y90.909 E29.88
G1 X108.98 Y91.382 E30.00842
G1 X112.085 Y91.362 E30.18915
G1 X115.834 Y91.231 E30.40749
G1 X118.166 Y90.883 E30.54473
G1 X120.653 Y89.679 E30.70556
G1 X122.662 Y88.497 E30.84123
G1 X124.856 Y87.237 E30.98849
G1 X127.988 Y85.187 E31.20637
G1 X129.615 Y82.462 E31.3911
G1 X129.421 Y80.084 E31.52997
G1 X128.864 Y78.393 E31.6336
G1 X127.263 Y76.969 E31.75831
G1 X125.962 Y76.103 E31.84928
G1 X123.605 Y74.728 E32.00811
G1 X121.078 Y73.41 E32.17399
G1 X119.207 Y71.577 E32.32645
G1 X118.188 Y69.232 E32.47527
G1 X117.883 Y66.766 E32.6199
G1 X118.401 Y63.251 E32.8267
G1 X120.349 Y60.792 E33.00929
G1 X122.415 Y59.383 E33.15485
G1 X124.875 Y58.903 E33.30074
G1 X127.678 Y59.682 E33.47007
G1 X129.038 Y60.713 E33.5694
G1 X130.006 Y62.032 E33.66463
G1 X130.566 Y63.762 E33.77047
G1 X130.648 Y65.951 E33.89797
G1 X129.826 Y67.604 E34.00542
G1 X128.653 Y68.545 E34.09295
G1 X128.166 Y68.936 E34.1293
G1 X128.149 Y68.95 E34.13059
G1 X128.008 Y68.963 E34.13883
G1 X126.94 Y69.065 E34.20127
G1 X127.983 Y68.709 E34.22259
G1 X128.395 Y68.24 E34.25399
G1 X129.312 Y67.196 E34.33487
G1 X130.078 Y65.536 E34.44128
G1 X130.002 Y63.669 E34.55004
G1 X129.416 Y62.507 E34.62579
G1 X128.403 Y61.258 E34.71939
G1 X126.875 Y60.382 E34.82191
G1 X124.831 Y59.951 E34.9435
G1 X122.523 Y60.375 E35.08008
G1 X120.42 Y61.828 E35.22886
G1 X119.276 Y64.29 E35.38688
G1 X119.222 Y66.687 E35.52643
G1 X119.635 Y68.245 E35.62025
G1 X120.774 Y69.733 E35.72932
G1 X122.592 Y71.38 E35.8721
G1 X124.587 Y72.305 E36.0001
G1 X127.443 Y73.605 E36.18274
G1 X129.445 Y74.692 E36.31534
G1 X131.702 Y76.231 E36.47434
G1 X134.01 Y78.77 E36.67406
G1 X134.871 Y82.067 E36.8724
G1 X134.67 Y85.568 E37.07651
G1 X134.015 Y88.388 E37.24502
G1 X134.551 Y89.739 E37.32961
G1 X138.059 Y91.304 E37.5532
G1 X141.213 Y91.663 E37.73796
G1 X143.242 Y91.175 E37.85943
G1 X144.438 Y90.51 E37.93908
G1 X145.582 Y89.267 E38.0374
G1 X146.097 Y87.431 E38.14839
G1 X146.081 Y85.439 E38.26434
G1 X146.122 Y82.565 E38.43164
G1 X145.599 Y79.479 E38.61382
G1 X145.461 Y76.381 E38.79432
G1 X145.948 Y74.494 E38.90775
G1 X146.804 Y72.851 E39.01559
G1 X148.112 Y71.652 E39.11887
G1 X149.995 Y70.755 E39.24027
G1 X152.263 Y70.398 E39.3739
G1 X153.994 Y70.676 E39.47595
G1 X155.724 Y71.37 E39.58444
G1 X157.03 Y72.434 E39.68249
G1 X158.08 Y73.723 E39.77926
G1 X158.6 Y75.656 E39.89577
G1 X158.59 Y77.203 E39.98581
G1 X157.961 Y78.832 E40.08745
G1 X156.604 Y80.538 E40.21433
G1 X154.782 Y81.354 E40.33053
G1 X154.495 Y81.363 E40.34725
G1 X152.414 Y81.427 E40.46843
G1 X152.391 Y81.428 E40.46977
G1 X152.352 Y81.407 E40.47235
G1 X151.776 Y81.1 E40.51034
G1 X152.41 Y81.296 E40.51677
G1 X154.465 Y80.965 E40.59726
G1 X154.581 Y80.946 E40.6041
G1 X156.362 Y80.125 E40.71825
G1 X157.574 Y78.633 E40.83014
G1 X157.874 Y77.391 E40.90451
G1 X157.9 Y75.91 E40.99072
G1 X157.468 Y74.107 E41.09863
G1 X156.537 Y72.943 E41.18539
G1 X155.441 Y72.011 E41.26913
G1 X153.985 Y71.51 E41.35875
G1 X152.227 Y71.182 E41.46284
G1 X150.053 Y71.635 E41.5921
G1 X148.561 Y72.263 E41.68632
G1 X147.557 Y73.222 E41.76713
G1 X146.8 Y74.673 E41.86239
G1 X146.415 Y76.42 E41.96652
G1 X146.667 Y79.336 E42.13688
G1 X147.444 Y82.269 E42.31348
G1 X148.06 Y85.107 E42.48251
G1 X148.752 Y87.586 E42.63232
G1 X148.601 Y89.897 E42.76712
G1 X147.54 Y92.517 E42.93165
G1 X145.725 Y94.211 E43.07616
G1 X142.36 Y95.981 E43.29746
G1 X138.436 Y96.921 E43.53232
G1 X136.916 Y97.82 E43.63511
G1 X137.081 Y98.653 E43.68453
G1 X139.534 Y99.009 E43.82881
G1 X143.205 Y100.118 E44.05201
G1 X146.038 Y101.303 E44.23075
G1 X148.554 Y102.624 E44.39616
G1 X150.957 Y104.254 E44.56517
G1 X153.102 Y106.303 E44.73782
G1 X154.86 Y108.534 E44.90315
G1 X156.623 Y110.515 E45.05751
G1 X158.776 Y112.156 E45.21507
G1 X160.427 Y113.045 E45.32421
G1 X162.231 Y113.649 E45.43495
G1 X163.391 Y113.884 E45.50383
G1 X165.281 Y113.797 E45.61396
G1 X166.518 Y113.449 E45.68875
G1 X167.741 Y112.731 E45.7713
G1 X169.002 Y111.746 E45.86443
G1 X170.059 Y109.62 E46.00263
G1 X170.3 Y108.281 E46.08182
G1 X170.189 Y106.937 E46.16031
G1 X169.79 Y105.672 E46.23752
G1 X168.984 Y104.246 E46.33286
G1 X167.843 Y103.208 E46.42264
G1 X166.77 Y102.533 E46.49643
G1 X164.865 Y102.3 E46.60813
G1 X163.011 Y102.947 E46.72243
G1 X162.924 Y103.008 E46.72861
G1 X161.209 Y104.204 E46.85031
G1 X160.886 Y104.788 E46.88915
G1 X161.088 Y104.165 E46.89501
G1 X161.102 Y104.123 E46.89672
G1 X161.119 Y104.107 E46.89762
G1 X162.667 Y102.702 E46.97862
G1 X162.875 Y102.513 E46.99498
G1 X164.751 Y101.834 E47.1111
G1 X166.915 Y102.12 E47.23815
G1 X168.501 Y102.855 E47.3399
G1 X169.611 Y103.946 E47.43049
G1 X170.45 Y105.341 E47.52524
G1 X170.82 Y106.972 E47.62258
G1 X170.873 Y108.699 E47.72315
G1 X170.51 Y110.343 E47.82115
G1 X169.372 Y112.38 E47.95696
G1 X168.176 Y113.377 E48.04759
G1 X166.593 Y114.189 E48.15114
G1 X165.155 Y114.536 E48.23724
G1 X162.53 Y114.605 E48.39008
G1 X161.177 Y114.264 E48.4713
G1 X158.938 Y113.467 E48.60963
G1 X157.317 Y112.492 E48.71973
G1 X155.3 Y110.832 E48.87178
G1 X153.419 Y109.08 E49.0214
G1 X151.724 Y107.343 E49.16266
G1 X150.334 Y106.033 E49.27383
G1 X148.743 Y105.273 E49.37646
G1 X146.269 Y104.551 E49.52647
G1 X143.554 Y104.13 E49.68638
G1 X139.544 Y104.182 E49.91981
G1 X137.656 Y104.761 E50.03475
G1 X136.822 Y105.635 E50.10507
G1 X137.491 Y106.747 E50.1806
G1 X138.332 Y107.226 E50.23693
G1 X140.961 Y108.88 E50.41772
G1 X145.939 Y112.053 E50.76132
G1 X148.872 Y115.037 E51.00486
G1 X149.795 Y117.73 E51.17056
G1 X149.496 Y121.423 E51.38621
G1 X148.381 Y124.356 E51.56885
G1 X147.301 Y127.385 E51.75602
G1 X147.142 Y130.33 E51.92769
G1 X147.495 Y131.904 E52.02158
G1 X148.293 Y133.372 E52.11883
G1 X149.524 Y134.633 E52.2214
G1 X151.243 Y135.444 E52.33203
G1 X152.919 Y135.545 E52.42976
G1 X154.947 Y135.102 E52.55059
G1 X156.401 Y134.033 E52.65563
G1 X157.312 Y132.909 E52.73984
G1 X157.958 Y131.092 E52.85208
G1 X157.883 Y129.337 E52.95433
G1 X157.571 Y128.102 E53.02847
G1 X156.362 Y126.614 E53.14006
G1 X154.581 Y125.792 E53.25424
G1 X154.465 Y125.773 E53.26108
G1 X152.41 Y125.443 E53.38222
G1 X151.775 Y125.639 E53.4209
G1 X152.352 Y125.332 E53.4267
G1 X152.391 Y125.311 E53.42928
G1 X152.413 Y125.311 E53.43013
G1 X154.493 Y125.375 E53.51075
G1 X154.782 Y125.384 E53.52758
G1 X156.604 Y126.2 E53.64378
G1 X157.963 Y127.909 E53.77086
G1 X158.594 Y129.536 E53.87244
G1 X158.621 Y131.36 E53.97862
G1 X157.827 Y133.395 E54.10576
G1 X156.789 Y134.71 E54.20327
G1 X154.838 Y135.966 E54.33833
G1 X152.725 Y136.344 E54.46327
G1 X150.977 Y136.289 E54.56506
G1 X148.929 Y135.299 E54.69746
G1 X147.065 Y133.649 E54.84236
G1 X146.128 Y132.033 E54.95108
G1 X145.541 Y130.325 E55.05621
G1 X145.609 Y127.272 E55.23395
G1 X146.235 Y124.222 E55.41518
G1 X147.072 Y121.162 E55.59983
G1 X147.263 Y117.608 E55.80699
G1 X146.197 Y115.309 E55.95449
G1 X144.096 Y113.836 E56.10384
G1 X142.245 Y113.194 E56.21787
G1 X140.201 Y113.069 E56.33706
G1 X137.763 Y113.461 E56.48079
G1 X134.487 Y115.276 E56.69878
G1 X133.573 Y117.097 E56.81737
G1 X131.934 Y119.838 E57.00326
G1 X130.881 Y121.421 E57.11392
G1 X129.04 Y123.05 E57.25701
G1 X128.141 Y123.311 E57.31149
G1 X125.455 Y124.003 E57.47294
G1 X124.569 Y126.839 E57.64587
G1 X123.923 Y128.809 E57.76655
G1 X124.046 Y131.257 E57.90921
G1 X125.103 Y133.703 E58.06431
G1 X126.178 Y135.239 E58.17343
G1 X128.583 Y136.777 E58.33959
G1 X130.734 Y138.629 E58.5048
G1 X131.813 Y140.877 E58.64994
G1 X132.117 Y143.273 E58.79052
G1 X131.598 Y146.749 E58.99508
G1 X129.654 Y149.203 E59.1773
G1 X127.583 Y150.618 E59.3233
G1 X125.125 Y151.097 E59.46906
G1 X122.322 Y150.318 E59.63839
G1 X120.962 Y149.287 E59.73772
G1 X119.994 Y147.968 E59.83295
G1 X119.434 Y146.238 E59.93879
G1 X119.352 Y144.049 E60.06629
G1 X120.174 Y142.396 E60.17375
G1 X121.347 Y141.455 E60.26127
G1 X121.834 Y141.064 E60.29763
G1 X121.851 Y141.05 E60.29891
G1 X121.992 Y141.037 E60.30715
G1 X123.056 Y140.935 E60.36936
G1 X122.017 Y141.291 E60.39061
G1 X121.605 Y141.76 E60.42201
G1 X120.688 Y142.804 E60.50289
G1 X119.922 Y144.464 E60.6093
G1 X119.997 Y146.331 E60.71806
